svg/quotes.svg

<svg width="35" height="26" viewBox="0 0 35 26" fill="none" xmlns="http://www.w3.org/2000/svg">
<path d="M20.0117 25.0781L19.3213 23.9932C19.7816 22.2178 20.3241 20.3273 20.9487 18.3218C21.6063 16.3162 22.3132 14.2943 23.0693 12.2559C23.8255 10.2174 24.631 8.19548 25.4858 6.18994C26.3407 4.15153 27.179 2.21175 28.001 0.370605H34.7573C34.2642 2.37614 33.771 4.46387 33.2778 6.63379C32.8175 8.80371 32.3737 10.9736 31.9463 13.1436C31.5189 15.2806 31.1243 17.3683 30.7627 19.4067C30.401 21.4451 30.0887 23.3356 29.8257 25.0781H20.0117ZM1.0249 25.0781L0.334473 23.9932C0.794759 22.2178 1.33724 20.3273 1.96191 18.3218C2.61947 16.3162 3.32633 14.2943 4.08252 12.2559C4.8387 10.2174 5.64421 8.19548 6.49902 6.18994C7.35384 4.15153 8.19222 2.21175 9.01416 0.370605H15.7705C15.2773 2.37614 14.7842 4.46387 14.291 6.63379C13.8307 8.80371 13.3869 10.9736 12.9595 13.1436C12.5321 15.2806 12.1375 17.3683 11.7759 19.4067C11.4142 21.4451 11.1019 23.3356 10.8389 25.0781H1.0249Z" fill="white"/>
</svg>

<svg fill="none" xmlns="http://www.w3.org/2000/svg" viewBox="0 0 35 26"><path d="M20.012 25.078l-.69-1.085c.46-1.775 1.002-3.666 1.627-5.671a167.538 167.538 0 012.12-6.066c.757-2.039 1.562-4.06 2.417-6.066A278.597 278.597 0 0128 .37h6.756a366.132 366.132 0 00-1.48 6.264c-.46 2.17-.903 4.34-1.33 6.51a292.162 292.162 0 00-1.184 6.263 223.757 223.757 0 00-.937 5.671h-9.814zm-18.987 0l-.69-1.085c.46-1.775 1.002-3.666 1.627-5.671a167.289 167.289 0 012.12-6.066C4.84 10.217 5.645 8.196 6.5 6.19A278.498 278.498 0 019.014.37h6.757a365.189 365.189 0 00-1.48 6.264c-.46 2.17-.904 4.34-1.332 6.51a292.162 292.162 0 00-1.183 6.263 223.757 223.757 0 00-.937 5.671H1.025z" fill="#fff"/></svg>
